src/22/panel/copy-insync.svg

<svg xmlns="http://www.w3.org/2000/svg" width="22" height="22" x="0" y="0" version="1.1" xml:space="preserve">
 <defs>
  <style id="current-color-scheme" type="text/css">
   .ColorScheme-Text { color:#dfdfdf; } .ColorScheme-Highlight { color:#4285f4; }
  </style>
 </defs>
 <path style="fill:currentColor" class="ColorScheme-Text" d="m19.635 2.0254l-5.617 6.8164 1.982 1.1582 4-7.6484-0.365-0.3262zm-14.635 4.4746l-4 3.5 4.375-0.625 1.625 9.625 3.393-2.301 9.607 2.801-3-7.5-2-1.4-5.252 4.492-3.248-8.092-1.5-0.5zm7 2.5293l-3 0.9707 1 3 4-3-2-0.9707z"/>
</svg>

<svg xmlns="http://www.w3.org/2000/svg" width="22" height="22"><defs><style id="current-color-scheme" type="text/css"></style></defs><path d="M19.635 2.025l-5.617 6.817L16 10l4-7.648-.365-.327zM5 6.5L1 10l4.375-.625L7 19l3.393-2.301L20 19.5 17 12l-2-1.4-5.252 4.492L6.5 7 5 6.5zm7 2.53L9 10l1 3 4-3-2-.97z" fill="currentColor" color="#bebebe"/></svg>
